src/components/Careers/Benefits/images/insurance.svg

<svg xmlns="http://www.w3.org/2000/svg" width="46" height="68" fill="none" viewBox="0 0 46 68"><path fill="#F7A501" fill-opacity=".4" d="M28.9587 34.6939V16.1438C28.9587 16.1438 42.1705 8.40499 44.2827 10.0948C47.7779 12.8911 40.0643 16.5961 37.9463 17.5339C39.5443 16.8868 44.2827 15.2788 44.2827 18.9667C44.2827 22.2342 39.3799 23.2137 38.4022 23.3765C39.4409 23.2286 44.8617 22.6478 42.6697 27.0319C41.1182 30.1347 28.9587 34.6939 28.9587 34.6939Z"/><path stroke="#F7A501" stroke-linejoin="round" stroke-opacity=".8" stroke-width="1.613" d="M38.3376 24.1806L38.3404 24.202L38.3405 24.202L38.3406 24.202L38.3408 24.202L38.3413 24.2019L38.3426 24.2017L38.3461 24.2013L38.3575 24.1997L38.3963 24.194C38.4273 24.1894 38.4706 24.1827 38.5249 24.1737C39.055 24.0989 40.492 23.9524 41.5035 24.2734C41.9947 24.4293 42.2302 24.6448 42.3214 24.8809C42.4186 25.1327 42.4526 25.6627 41.9483 26.6712C41.8225 26.9228 41.5523 27.252 41.1034 27.6454C40.6642 28.0305 40.0988 28.4385 39.44 28.8575C38.1227 29.6953 36.4916 30.5396 34.8879 31.2972C33.288 32.053 31.7335 32.714 30.5777 33.1864C30.2777 33.3091 30.0048 33.4189 29.7653 33.5143V16.6094C29.8158 16.5804 29.8708 16.549 29.93 16.5152C30.2923 16.3086 30.813 16.015 31.4446 15.6677C32.709 14.9726 34.4131 14.0653 36.1795 13.2118C37.9521 12.3553 39.7609 11.5661 41.2414 11.0957C41.9847 10.8596 42.6102 10.7154 43.089 10.673C43.3272 10.6519 43.504 10.6584 43.6275 10.6794C43.7406 10.6986 43.7786 10.7246 43.7796 10.7252C44.1269 11.0032 44.2742 11.2433 44.3332 11.4262C44.3899 11.6022 44.3883 11.7974 44.3039 12.0382C44.1182 12.568 43.5704 13.2035 42.7183 13.8794C41.0546 15.199 38.6898 16.3221 37.6313 16.7913C37.4666 16.8582 37.3335 16.9154 37.2399 16.9566C37.192 16.9778 37.1543 16.9948 37.1279 17.0068L37.097 17.021L37.0882 17.0251L37.0854 17.0264L37.0845 17.0268L37.0841 17.027L37.084 17.0271L37.0839 17.0271L37.1902 17.2531C37.1902 17.2531 37.1902 17.2532 37.1902 17.2532L37.0838 17.0272C36.6883 17.2133 36.5131 17.6806 36.6887 18.0809C36.8642 18.4812 37.3267 18.6687 37.7316 18.5038L37.6405 18.2802C37.6405 18.2802 37.6405 18.2802 37.6405 18.2802L37.7316 18.5038L37.7316 18.5038L37.7317 18.5038L37.732 18.5036L37.7327 18.5034L37.735 18.5024L37.7429 18.4992L37.7718 18.4872C37.7967 18.4769 37.8329 18.4618 37.8792 18.4421C37.9697 18.4038 38.0993 18.3482 38.2608 18.2767C39.0522 17.957 40.5087 17.4504 41.7265 17.4311C42.3375 17.4214 42.7663 17.5376 43.0284 17.7374C43.25 17.9064 43.4762 18.2299 43.4762 18.9667C43.4762 20.1241 42.6199 20.979 41.3485 21.6144C40.1165 22.2302 38.75 22.5004 38.2786 22.5795C38.2243 22.5873 38.1809 22.594 38.1498 22.599L38.1108 22.6054L38.0994 22.6073L38.0958 22.608L38.0945 22.6082L38.094 22.6083L38.0938 22.6083L38.0937 22.6083L38.0937 22.6083L38.0974 22.6296C38.0974 22.6296 38.0974 22.6296 38.0974 22.6296L38.0936 22.6083C37.6615 22.6846 37.3696 23.0923 37.4368 23.526C37.5039 23.9596 37.9054 24.26 38.3404 24.202L38.3375 24.1806C38.3375 24.1806 38.3376 24.1806 38.3376 24.1806Z"/><path fill="#F7A501" fill-opacity=".4" d="M16.22 34.6939V16.1438C16.22 16.1438 3.00825 8.40499 0.895991 10.0948C-2.59922 12.8911 5.11439 16.5961 7.23242 17.5339C5.63441 16.8868 0.895991 15.2788 0.895991 18.9667C0.895991 22.2342 5.79885 23.2137 6.77653 23.3765C5.73778 23.2286 0.316961 22.6478 2.50904 27.0319C4.06047 30.1347 16.22 34.6939 16.22 34.6939Z"/><path stroke="#F7A501" stroke-linejoin="round" stroke-opacity=".8" stroke-width="1.613" d="M6.90009 22.5795C6.95437 22.5873 6.99779 22.594 7.02893 22.599L7.06794 22.6054L7.07933 22.6073L7.08293 22.608L7.08419 22.6082L7.08469 22.6083L7.08491 22.6083L7.08501 22.6083L7.08506 22.6083L7.0813 22.6296C7.08131 22.6296 7.08133 22.6296 7.08134 22.6296L7.0851 22.6083C7.51723 22.6846 7.8091 23.0924 7.74196 23.526C7.67482 23.9596 7.2733 24.26 6.83834 24.202L6.84119 24.1806C6.84118 24.1806 6.84116 24.1806 6.84115 24.1806L6.83829 24.202L6.83824 24.202L6.83814 24.202L6.83793 24.202L6.83743 24.2019L6.83616 24.2017L6.83257 24.2013L6.82124 24.1997L6.78241 24.194C6.75139 24.1894 6.7081 24.1827 6.65382 24.1737C6.1237 24.0989 4.68676 23.9524 3.67518 24.2734C3.18403 24.4293 2.94855 24.6448 2.85735 24.8809C2.76012 25.1327 2.72615 25.6627 3.23042 26.6712C3.35624 26.9228 3.62639 27.252 4.07526 27.6454C4.51454 28.0305 5.07993 28.4385 5.73871 28.8575C7.05598 29.6953 8.68716 30.5396 10.2908 31.2972C11.8907 32.053 13.4452 32.714 14.601 33.1864C14.901 33.3091 15.1739 33.4189 15.4134 33.5143V16.6094C15.3629 16.5804 15.3079 16.549 15.2487 16.5152C14.8864 16.3086 14.3657 16.015 13.7341 15.6677C12.4697 14.9726 10.7656 14.0653 8.9992 13.2118C7.22662 12.3553 5.41785 11.5661 3.93726 11.0957C3.19398 10.8596 2.56856 10.7154 2.08976 10.673C1.85149 10.6519 1.67472 10.6584 1.55124 10.6794C1.43809 10.6986 1.4001 10.7246 1.39906 10.7252C1.05182 11.0032 0.904469 11.2433 0.845549 11.4262C0.78884 11.6022 0.790402 11.7974 0.874788 12.0382C1.06052 12.568 1.60836 13.2035 2.46044 13.8794C4.12415 15.199 6.48892 16.3221 7.54737 16.7913C7.71216 16.8582 7.84521 16.9154 7.93879 16.9566C7.98676 16.9778 8.02443 16.9948 8.05077 17.0068L8.08168 17.021L8.09054 17.0251L8.09328 17.0264L8.09422 17.0268L8.09458 17.027L8.09473 17.0271L8.0948 17.0271L7.98848 17.2531C7.98849 17.2531 7.98849 17.2532 7.9885 17.2532L8.09487 17.0272C8.49038 17.2133 8.66564 17.6806 8.49005 18.0809C8.31447 18.4812 7.85196 18.6687 7.44716 18.5038L7.53826 18.2802C7.53825 18.2802 7.53823 18.2802 7.53822 18.2802L7.44712 18.5038L7.44707 18.5038L7.44697 18.5038L7.44672 18.5036L7.44599 18.5034L7.4437 18.5024L7.43578 18.4992L7.4069 18.4872C7.38198 18.4769 7.34585 18.4618 7.29949 18.4421C7.20901 18.4038 7.07945 18.3482 6.91794 18.2767C6.12653 17.957 4.67005 17.4504 3.45219 17.4311C2.84122 17.4214 2.41239 17.5376 2.15036 17.7374C1.92871 17.9064 1.70252 18.2299 1.70252 18.9667C1.70252 20.1241 2.55885 20.979 3.83019 21.6144C5.06219 22.2302 6.42866 22.5004 6.90009 22.5795Z"/><mask id="path-5-inside-1" fill="#fff"><path fill-rule="evenodd" d="M25.6733 13.3002C28.1239 12.2295 29.8366 9.78412 29.8366 6.93878C29.8366 3.1066 26.73 0 22.8978 0C19.0656 0 15.959 3.1066 15.959 6.93878C15.959 9.78412 17.6716 12.2295 20.1223 13.3002V43.0204C20.1223 44.5533 21.3649 45.7959 22.8978 45.7959C24.4307 45.7959 25.6733 44.5533 25.6733 43.0204V13.3002ZM16.0935 51.7711L12.3554 53.6881C9.30984 55.2499 8.79175 59.3876 11.3582 61.6521L13.4406 63.4896C14.0153 63.9967 14.8923 63.9419 15.3994 63.3672C15.9065 62.7924 15.8517 61.9155 15.277 61.4084L13.1946 59.571C12.0946 58.6004 12.3167 56.8272 13.6219 56.1578L16.0935 54.8903V51.7711ZM27.427 49.0783L32.05 46.7075C34.9268 45.2322 35.5864 41.4108 33.3706 39.0566L30.9816 36.5183C30.4563 35.9602 29.5781 35.9335 29.0199 36.4588C28.4618 36.9841 28.4352 37.8624 28.9605 38.4205L31.3495 40.9588C32.2991 41.9678 32.0164 43.6055 30.7835 44.2378L27.427 45.9591V49.0783ZM22.8978 56.898C21.3649 56.898 20.1223 58.1406 20.1223 59.6735V65.2245C20.1223 66.7574 21.3649 68 22.8978 68C24.4307 68 25.6733 66.7574 25.6733 65.2245V59.6735C25.6733 58.1406 24.4307 56.898 22.8978 56.898Z" clip-rule="evenodd"/></mask><path fill="#F7A501" fill-opacity=".4" fill-rule="evenodd" d="M25.6733 13.3002C28.1239 12.2295 29.8366 9.78412 29.8366 6.93878C29.8366 3.1066 26.73 0 22.8978 0C19.0656 0 15.959 3.1066 15.959 6.93878C15.959 9.78412 17.6716 12.2295 20.1223 13.3002V43.0204C20.1223 44.5533 21.3649 45.7959 22.8978 45.7959C24.4307 45.7959 25.6733 44.5533 25.6733 43.0204V13.3002ZM16.0935 51.7711L12.3554 53.6881C9.30984 55.2499 8.79175 59.3876 11.3582 61.6521L13.4406 63.4896C14.0153 63.9967 14.8923 63.9419 15.3994 63.3672C15.9065 62.7924 15.8517 61.9155 15.277 61.4084L13.1946 59.571C12.0946 58.6004 12.3167 56.8272 13.6219 56.1578L16.0935 54.8903V51.7711ZM27.427 49.0783L32.05 46.7075C34.9268 45.2322 35.5864 41.4108 33.3706 39.0566L30.9816 36.5183C30.4563 35.9602 29.5781 35.9335 29.0199 36.4588C28.4618 36.9841 28.4352 37.8624 28.9605 38.4205L31.3495 40.9588C32.2991 41.9678 32.0164 43.6055 30.7835 44.2378L27.427 45.9591V49.0783ZM22.8978 56.898C21.3649 56.898 20.1223 58.1406 20.1223 59.6735V65.2245C20.1223 66.7574 21.3649 68 22.8978 68C24.4307 68 25.6733 66.7574 25.6733 65.2245V59.6735C25.6733 58.1406 24.4307 56.898 22.8978 56.898Z" clip-rule="evenodd"/><path fill="#F7A501" fill-opacity=".8" d="M25.6733 13.3002L25.1177 12.0285L24.2855 12.3921V13.3002H25.6733ZM20.1223 13.3002H21.51V12.3921L20.6779 12.0285L20.1223 13.3002ZM12.3554 53.6881L12.9887 54.9229L12.9887 54.9229L12.3554 53.6881ZM16.0935 51.7711H17.4813V49.4999L15.4602 50.5363L16.0935 51.7711ZM11.3582 61.6521L12.2764 60.6115L12.2764 60.6115L11.3582 61.6521ZM13.4406 63.4896L14.3588 62.449L14.3588 62.449L13.4406 63.4896ZM15.3994 63.3672L14.3588 62.449L14.3588 62.449L15.3994 63.3672ZM15.277 61.4084L16.1952 60.3678L16.1952 60.3678L15.277 61.4084ZM13.1946 59.571L14.1127 58.5304L14.1127 58.5304L13.1946 59.571ZM13.6219 56.1578L12.9887 54.9229L12.9887 54.9229L13.6219 56.1578ZM16.0935 54.8903L16.7268 56.1252L17.4813 55.7382V54.8903H16.0935ZM32.05 46.7075L32.6833 47.9423L32.6833 47.9423L32.05 46.7075ZM27.427 49.0783H26.0392V51.3496L28.0602 50.3131L27.427 49.0783ZM33.3706 39.0566L32.3601 40.0077L32.3601 40.0077L33.3706 39.0566ZM30.9816 36.5183L29.9711 37.4694L29.9711 37.4694L30.9816 36.5183ZM29.0199 36.4588L29.9711 37.4694L29.9711 37.4694L29.0199 36.4588ZM28.9605 38.4205L27.9499 39.3716L27.9499 39.3716L28.9605 38.4205ZM31.3495 40.9588L32.3601 40.0077L32.3601 40.0077L31.3495 40.9588ZM30.7835 44.2378L30.1503 43.0029L30.1503 43.0029L30.7835 44.2378ZM27.427 45.9591L26.7937 44.7243L26.0392 45.1112V45.9591H27.427ZM28.4488 6.93878C28.4488 9.21289 27.0811 11.1707 25.1177 12.0285L26.2289 14.5719C29.1668 13.2882 31.2243 10.3553 31.2243 6.93878H28.4488ZM22.8978 1.38776C25.9635 1.38776 28.4488 3.87303 28.4488 6.93878H31.2243C31.2243 2.34016 27.4964 -1.38776 22.8978 -1.38776V1.38776ZM17.3468 6.93878C17.3468 3.87303 19.832 1.38776 22.8978 1.38776V-1.38776C18.2992 -1.38776 14.5713 2.34016 14.5713 6.93878H17.3468ZM20.6779 12.0285C18.7145 11.1707 17.3468 9.21289 17.3468 6.93878H14.5713C14.5713 10.3553 16.6288 13.2882 19.5667 14.5719L20.6779 12.0285ZM21.51 43.0204V13.3002H18.7345V43.0204H21.51ZM22.8978 44.4082C22.1313 44.4082 21.51 43.7868 21.51 43.0204H18.7345C18.7345 45.3197 20.5985 47.1837 22.8978 47.1837V44.4082ZM24.2855 43.0204C24.2855 43.7868 23.6642 44.4082 22.8978 44.4082V47.1837C25.1971 47.1837 27.0611 45.3197 27.0611 43.0204H24.2855ZM24.2855 13.3002V43.0204H27.0611V13.3002H24.2855ZM12.9887 54.9229L16.7268 53.006L15.4602 50.5363L11.7222 52.4533L12.9887 54.9229ZM12.2764 60.6115C10.4432 58.994 10.8133 56.0385 12.9887 54.9229L11.7222 52.4532C7.80642 54.4613 7.1403 59.7812 10.44 62.6927L12.2764 60.6115ZM14.3588 62.449L12.2764 60.6115L10.44 62.6927L12.5225 64.5302L14.3588 62.449ZM14.3588 62.449L14.3588 62.449L12.5225 64.5302C13.6719 65.5443 15.4258 65.4347 16.44 64.2853L14.3588 62.449ZM14.3588 62.449L14.3588 62.449L16.44 64.2853C17.4542 63.1359 17.3446 61.382 16.1952 60.3678L14.3588 62.449ZM12.2764 60.6115L14.3588 62.449L16.1952 60.3678L14.1127 58.5304L12.2764 60.6115ZM12.9887 54.9229C10.8133 56.0385 10.4432 58.994 12.2764 60.6115L14.1127 58.5304C13.7461 58.2069 13.8201 57.6158 14.2552 57.3926L12.9887 54.9229ZM15.4603 53.6555L12.9887 54.9229L14.2552 57.3926L16.7268 56.1252L15.4603 53.6555ZM14.7058 51.7711V54.8903H17.4813V51.7711H14.7058ZM31.4168 45.4726L26.7937 47.8434L28.0602 50.3131L32.6833 47.9423L31.4168 45.4726ZM32.3601 40.0077C33.9427 41.6893 33.4716 44.4189 31.4168 45.4726L32.6833 47.9423C36.382 46.0456 37.23 41.1323 34.3812 38.1055L32.3601 40.0077ZM29.9711 37.4694L32.3601 40.0077L34.3812 38.1055L31.9922 35.5672L29.9711 37.4694ZM29.9711 37.4694L29.9711 37.4694L31.9922 35.5672C30.9416 34.4509 29.1851 34.3977 28.0688 35.4483L29.9711 37.4694ZM29.9711 37.4694L29.9711 37.4694L28.0688 35.4483C26.9526 36.4988 26.8994 38.2554 27.9499 39.3716L29.9711 37.4694ZM32.3601 40.0077L29.9711 37.4694L27.9499 39.3716L30.3389 41.9099L32.3601 40.0077ZM31.4168 45.4726C33.4716 44.4189 33.9427 41.6893 32.3601 40.0077L30.3389 41.9099C30.6555 42.2463 30.5612 42.7922 30.1503 43.0029L31.4168 45.4726ZM28.0602 47.194L31.4168 45.4726L30.1503 43.0029L26.7937 44.7243L28.0602 47.194ZM28.8147 49.0783V45.9591H26.0392V49.0783H28.8147ZM21.51 59.6735C21.51 58.907 22.1313 58.2857 22.8978 58.2857V55.5102C20.5985 55.5102 18.7345 57.3742 18.7345 59.6735H21.51ZM21.51 65.2245V59.6735H18.7345V65.2245H21.51ZM22.8978 66.6122C22.1313 66.6122 21.51 65.9909 21.51 65.2245H18.7345C18.7345 67.5238 20.5985 69.3878 22.8978 69.3878V66.6122ZM24.2855 65.2245C24.2855 65.9909 23.6642 66.6122 22.8978 66.6122V69.3878C25.1971 69.3878 27.0611 67.5238 27.0611 65.2245H24.2855ZM24.2855 59.6735V65.2245H27.0611V59.6735H24.2855ZM22.8978 58.2857C23.6642 58.2857 24.2855 58.907 24.2855 59.6735H27.0611C27.0611 57.3742 25.1971 55.5102 22.8978 55.5102V58.2857Z" mask="url(#path-5-inside-1)"/><path stroke="#F7A501" stroke-linecap="round" stroke-linejoin="round" stroke-opacity=".8" stroke-width="2.776" d="M14.2244 37.8164L11.8354 40.3547C10.2527 42.0363 10.7238 44.7659 12.7786 45.8196L31.2067 55.27C33.3822 56.3856 33.7522 59.341 31.919 60.9586L29.8366 62.796"/></svg>

<svg fill="none" viewBox="0 0 46 68"><path fill="#F7A501" fill-opacity=".4" d="M28.959 34.694v-18.55s13.211-7.739 15.324-6.05c3.495 2.797-4.219 6.502-6.337 7.44 1.598-.647 6.337-2.255 6.337 1.433 0 3.267-4.903 4.247-5.88 4.41 1.038-.148 6.459-.73 4.267 3.655-1.552 3.103-13.711 7.662-13.711 7.662z"/><path stroke="#F7A501" stroke-linejoin="round" stroke-opacity=".8" stroke-width="1.613" d="M38.338 24.18l.002.022h.006l.012-.002.038-.006.129-.02c.53-.075 1.967-.222 2.979.1.49.155.726.37.817.607.098.252.132.782-.373 1.79-.126.252-.396.581-.845.974-.439.386-1.004.794-1.663 1.213-1.317.837-2.948 1.682-4.552 2.44a90.214 90.214 0 01-5.123 2.216V16.61l.165-.094a113.217 113.217 0 016.25-3.303c1.772-.857 3.58-1.646 5.061-2.116.744-.236 1.37-.38 1.848-.423.238-.021.415-.015.538.006.114.02.152.046.153.046.347.278.494.518.553.701.057.176.055.371-.03.612-.185.53-.733 1.165-1.585 1.841-1.663 1.32-4.028 2.443-5.087 2.912a14.826 14.826 0 00-.503.216l-.031.014-.009.004-.003.001h0v.001h-.001 0l.106.226s0 0 0 0l-.106-.226a.806.806 0 00.648 1.477l-.091-.224s0 0 0 0l.09.224h.001l.003-.002.008-.003.029-.012.107-.045.382-.165c.791-.32 2.248-.827 3.465-.846.611-.01 1.04.107 1.302.306.222.17.448.493.448 1.23 0 1.157-.856 2.012-2.127 2.647-1.232.616-2.599.886-3.07.965a7.885 7.885 0 00-.13.02l-.038.006-.012.002-.003.001h-.002 0l.003.022s0 0 0 0l-.003-.022a.806.806 0 00.246 1.594l-.003-.021s0 0 0 0z"/><path fill="#F7A501" fill-opacity=".4" d="M16.22 34.694v-18.55S3.008 8.405.896 10.094c-3.495 2.797 4.218 6.502 6.336 7.44-1.598-.647-6.336-2.255-6.336 1.433 0 3.267 4.903 4.247 5.88 4.41-1.038-.148-6.459-.73-4.267 3.655 1.551 3.103 13.711 7.662 13.711 7.662z"/><path stroke="#F7A501" stroke-linejoin="round" stroke-opacity=".8" stroke-width="1.613" d="M6.9 22.58l.129.019.039.006.011.002.004.001h.002l-.004.022s0 0 0 0l.004-.022a.807.807 0 01-.247 1.594l.003-.021s0 0 0 0l-.003.021h0-.005L6.82 24.2l-.039-.006a7.71 7.71 0 01-.128-.02c-.53-.075-1.967-.222-2.979.1-.491.155-.726.37-.818.607-.097.252-.13.782.373 1.79.126.252.396.581.845.974.44.386 1.005.794 1.664 1.213 1.317.837 2.948 1.682 4.552 2.44a90.214 90.214 0 005.122 2.216V16.61l-.164-.094a113.217 113.217 0 00-6.25-3.303c-1.772-.857-3.581-1.646-5.062-2.116-.743-.236-1.368-.38-1.847-.423a2.177 2.177 0 00-.539.006c-.113.02-.15.046-.152.046-.347.278-.495.518-.553.701-.057.176-.056.371.029.612.186.53.733 1.165 1.585 1.841 1.664 1.32 4.029 2.443 5.087 2.912a14.674 14.674 0 01.504.216l.03.014.01.004.002.001h.001v.001h0l-.106.226s0 0 0 0l.107-.226a.806.806 0 01-.648 1.477l.091-.224s0 0 0 0l-.09.224h0-.001 0-.001l-.002-.002-.008-.003-.03-.012-.107-.045c-.09-.038-.22-.094-.381-.165-.791-.32-2.248-.827-3.466-.846-.61-.01-1.04.107-1.302.306-.221.17-.447.493-.447 1.23 0 1.157.856 2.012 2.127 2.647 1.232.616 2.599.886 3.07.965z"/><mask id="a" fill="#fff"><path fill-rule="evenodd" d="M25.673 13.3A6.94 6.94 0 0022.898 0a6.939 6.939 0 00-2.776 13.3v29.72a2.775 2.775 0 105.551 0V13.3zm-9.58 38.471l-3.738 1.917c-3.045 1.562-3.563 5.7-.997 7.964l2.083 1.838a1.388 1.388 0 001.836-2.082l-2.082-1.837a2.082 2.082 0 01.427-3.413l2.471-1.268v-3.119zm11.334-2.693l4.623-2.37c2.877-1.476 3.536-5.297 1.32-7.651l-2.388-2.539a1.388 1.388 0 10-2.021 1.902l2.389 2.539a2.082 2.082 0 01-.567 3.279l-3.356 1.721v3.12zm-4.53 7.82a2.775 2.775 0 00-2.775 2.775v5.552a2.775 2.775 0 105.551 0v-5.551a2.775 2.775 0 00-2.775-2.776z" clip-rule="evenodd"/></mask><path fill="#F7A501" fill-opacity=".4" fill-rule="evenodd" d="M25.673 13.3A6.94 6.94 0 0022.898 0a6.939 6.939 0 00-2.776 13.3v29.72a2.775 2.775 0 105.551 0V13.3zm-9.58 38.471l-3.738 1.917c-3.045 1.562-3.563 5.7-.997 7.964l2.083 1.838a1.388 1.388 0 001.836-2.082l-2.082-1.837a2.082 2.082 0 01.427-3.413l2.471-1.268v-3.119zm11.334-2.693l4.623-2.37c2.877-1.476 3.536-5.297 1.32-7.651l-2.388-2.539a1.388 1.388 0 10-2.021 1.902l2.389 2.539a2.082 2.082 0 01-.567 3.279l-3.356 1.721v3.12zm-4.53 7.82a2.775 2.775 0 00-2.775 2.775v5.552a2.775 2.775 0 105.551 0v-5.551a2.775 2.775 0 00-2.775-2.776z" clip-rule="evenodd"/><path fill="#F7A501" fill-opacity=".8" d="M25.673 13.3l-.555-1.272-.832.364v.908h1.387zm-5.55 0h1.387v-.908l-.832-.364-.556 1.272zm-7.768 40.388l.634 1.235-.634-1.235zm3.738-1.917h1.388V49.5l-2.02 1.036.632 1.235zm-4.735 9.881l.918-1.04-.918 1.04zm2.083 1.838l.918-1.041-.918 1.04zm1.958-.123l-1.04-.918 1.04.918zm-.122-1.959l.918-1.04-.918 1.04zm-2.082-1.837l.918-1.04-.918 1.04zm.427-3.413l-.633-1.235.633 1.235zm2.471-1.268l.634 1.235.754-.387v-.848h-1.388zm15.957-8.182l.633 1.234-.633-1.234zm-4.623 2.37h-1.388v2.272l2.021-1.037-.633-1.235zm5.944-10.021l-1.01.95 1.01-.95zm-2.39-2.539l-1.01.951 1.01-.95zm-1.961-.06l.951 1.011-.951-1.01zm-.06 1.962l-1.01.952 1.01-.952zm2.39 2.539l1.01-.951-1.01.95zm-.567 3.279l-.633-1.235.634 1.235zm-3.356 1.721l-.633-1.235-.755.387v.848h1.388zm1.022-39.02a5.553 5.553 0 01-3.331 5.09l1.11 2.543a8.328 8.328 0 004.996-7.633H28.45zm-5.551-5.551a5.551 5.551 0 015.55 5.55h2.776a8.327 8.327 0 00-8.326-8.326v2.776zm-5.551 5.55a5.551 5.551 0 015.55-5.55v-2.776a8.327 8.327 0 00-8.326 8.327h2.776zm3.33 5.09a5.553 5.553 0 01-3.33-5.09H14.57a8.328 8.328 0 004.996 7.634l1.11-2.543zm.833 30.992V13.3h-2.776v29.72h2.776zm1.388 1.388a1.388 1.388 0 01-1.388-1.388h-2.776c0 2.3 1.864 4.164 4.164 4.164v-2.776zm1.387-1.388c0 .767-.62 1.388-1.387 1.388v2.776c2.3 0 4.163-1.864 4.163-4.164h-2.776zm0-29.72v29.72h2.776V13.3h-2.776zM12.99 54.923l3.738-1.917-1.267-2.47-3.738 1.917 1.267 2.47zm-.713 5.688c-1.833-1.617-1.463-4.572.713-5.688l-1.267-2.47c-3.916 2.008-4.582 7.328-1.282 10.24l1.836-2.081zm2.083 1.838l-2.083-1.837-1.836 2.08 2.083 1.838 1.836-2.081zm0 0l-1.836 2.081a2.776 2.776 0 003.917-.245l-2.081-1.836zm0 0l2.081 1.836a2.775 2.775 0 00-.245-3.917l-1.836 2.081zm-2.083-1.837l2.083 1.837 1.836-2.081-2.082-1.838-1.837 2.081zm.713-5.69c-2.176 1.117-2.546 4.072-.713 5.69l1.837-2.082a.694.694 0 01.142-1.137l-1.266-2.47zm2.471-1.266l-2.471 1.267 1.266 2.47 2.472-1.268-1.267-2.47zm-.754-1.885v3.12h2.775v-3.12h-2.775zm16.71-6.298l-4.622 2.37 1.266 2.47 4.623-2.37-1.266-2.47zm.944-5.465a3.47 3.47 0 01-.943 5.465l1.266 2.47c3.699-1.897 4.547-6.81 1.698-9.837l-2.02 1.902zm-2.389-2.539l2.39 2.539 2.02-1.903-2.389-2.538-2.02 1.902zm0 0l2.021-1.902a2.775 2.775 0 00-3.923-.119l1.902 2.021zm0 0l-1.902-2.02a2.776 2.776 0 00-.12 3.923l2.022-1.903zm2.39 2.539l-2.39-2.539-2.021 1.903 2.389 2.538 2.021-1.902zm-.944 5.465a3.47 3.47 0 00.943-5.465L30.34 41.91a.694.694 0 01-.189 1.093l1.267 2.47zm-3.357 1.721l3.357-1.721-1.267-2.47-3.356 1.721 1.266 2.47zm.755 1.884V45.96H26.04v3.12h2.776zM21.51 59.673c0-.766.621-1.387 1.388-1.387V55.51a4.163 4.163 0 00-4.163 4.163h2.775zm0 5.552v-5.551h-2.776v5.55h2.776zm1.388 1.387a1.388 1.388 0 01-1.388-1.387h-2.776a4.163 4.163 0 004.164 4.163v-2.776zm1.387-1.387c0 .766-.62 1.387-1.387 1.387v2.776c2.3 0 4.163-1.864 4.163-4.163h-2.776zm0-5.551v5.55h2.776v-5.55h-2.776zm-1.387-1.388c.766 0 1.387.621 1.387 1.387h2.776a4.163 4.163 0 00-4.163-4.163v2.776z" mask="url(#a)"/><path stroke="#F7A501" stroke-linecap="round" stroke-linejoin="round" stroke-opacity=".8" stroke-width="2.776" d="M14.224 37.816l-2.389 2.539a3.47 3.47 0 00.944 5.465l18.428 9.45c2.175 1.116 2.545 4.071.712 5.689l-2.082 1.837"/></svg>
